!!!OTL: Winterlied.
!!!OTL-incipit: AUCH FUER DEN WINTER DANKEN WIR
!!!ARE: Europa, Mitteleuropa, Deutschland
!!!SCT: F0972
!!!TXL: @@DE
!!!YEM: Copyright 1995, estate of Helmut Schaffrath.
**kern	**text
*ICvox	*
*M3/4	*
*k[b-]	*
*F:	*
=1	=1
!LO:TX:a:t=Mäßig langsam.	!
{4f	1._Auch
4f	für
4f	den
=2	=2
2g	Win-
4g	-ter
=3	=3
2cc/	dan-
4b-/	-ken
=4	=4
2.a}	wir,
=5	=5
{4cc/	Herr,
4ff/	un-
4aa/	-ſer
=6	=6
2gg/	Gott
4ee/	und
=7	=7
(4gg/	Va-
4ff/)	.
4dd/	-ter,
=8	=8
2cc/	dir;
4r}	.
=9	=9
{4gg/	nicht
4ff/	ſür
4ee/	der
=10	=10
2ff/	Fel-
4cc/	-der
=11	=11
2cc/	Se-
4b-/	-gen
=12	=12
2.a}	nur,
=13	=13
{4ff/	auch
4cc/	für
4a	den
=14	=14
(4.dd/	Schlum-
8b-/)	.
8g/L	-mer
8ggJ	.
=15	=15
2.ff/	der
=16	=16
2.ee/	Na-
=17	=17
2ff/	-tur.
4r}	.
==	==
!!!AGN: Natur -, Jahreszeiten - Lied, Winter
!!!ONB: ESAC (Essen Associative Code) Database: FINK
!!!AMT: simple triple
!!!AIN: vox
!!!EED: Helmut Schaffrath
!!!EEV: 1.0
!!Text: Nach J. A. Cramer
!!!GTL: Lieder um Preise der Natur.
!!!source: Musikalischer Hausschatz der Deutschen. Eine Sammlung von über 1000 Liedern und Gesängen mit Singstimmen und Klavierbegleitung. Leipzig, Litterarisches Verlags-Haus.
!!!page: 733
!!!ENC: Anna Maria Matuszewska
!!!EEV: 2025/03/20
*-	*-
